docs/img/instagram.svg

<svg width="60" height="60" viewBox="0 0 60 60" fill="none" xmlns="http://www.w3.org/2000/svg">
<circle cx="30" cy="30" r="30" fill="url(#paint0_linear_141_100)"/>
<path fill-rule="evenodd" clip-rule="evenodd" d="M21.4469 15.0862C19.7686 15.3365 18.4445 16.0064 17.2238 17.2227C15.9816 18.4603 15.2933 19.8616 15.0665 21.6145C14.9778 22.3 14.9778 37.6964 15.0665 38.3819C15.2932 40.1335 15.9779 41.5265 17.2255 42.7743C18.4731 44.022 19.8659 44.7068 21.6173 44.9335C22.3027 45.0222 37.6973 45.0222 38.3827 44.9335C40.1341 44.7068 41.5269 44.022 42.7745 42.7743C44.0221 41.5265 44.7068 40.1335 44.9335 38.3819C45.0222 37.6964 45.0222 22.3 44.9335 21.6145C44.7067 19.8616 44.0184 18.4603 42.7762 17.2227C41.5209 15.9718 40.1325 15.2893 38.3827 15.0629C37.6321 14.9657 22.1114 14.9871 21.4469 15.0862ZM38.9435 20.22C40.2113 20.8233 40.3454 22.613 39.1814 23.3952C38.7625 23.6767 38.4986 23.7485 38.0032 23.7162C37.3243 23.6719 36.7779 23.3146 36.4548 22.7037C36.3209 22.4504 36.2998 22.3394 36.2988 21.8834C36.2975 21.2643 36.4161 20.9585 36.8104 20.5641C37.1087 20.2659 37.3176 20.1522 37.7329 20.0622C38.165 19.9685 38.5096 20.0134 38.9435 20.22ZM31.2009 23.8839C33.0934 24.2432 34.7128 25.4754 35.579 27.2151C36.0301 28.121 36.2204 28.9468 36.2204 29.9982C36.2204 31.6506 35.6519 33.0954 34.5402 34.2682C33.318 35.5576 31.778 36.2194 30 36.2194C26.9853 36.2194 24.5056 34.186 23.878 31.1993C23.7471 30.5762 23.7471 29.4201 23.878 28.7971C24.1339 27.5797 24.6453 26.5874 25.4598 25.7281C25.9778 25.1818 26.4149 24.8449 27.0273 24.5202C28.3753 23.8054 29.7135 23.6014 31.2009 23.8839Z" fill="white"/>
<defs>
<linearGradient id="paint0_linear_141_100" x1="50.625" y1="6.5625" x2="8.4375" y2="53.9063" gradientUnits="userSpaceOnUse">
<stop stop-color="#B658FF"/>
<stop offset="0.479167" stop-color="#FF8787"/>
<stop offset="0.978284" stop-color="#FFCF87"/>
</linearGradient>
</defs>
</svg>

<svg width="60" height="60" fill="none" xmlns="http://www.w3.org/2000/svg"><circle cx="30" cy="30" r="30" fill="url(#paint0_linear_141_100)"/><path fill-rule="evenodd" clip-rule="evenodd" d="M21.447 15.086c-1.678.25-3.002.92-4.223 2.137-1.242 1.237-1.93 2.639-2.158 4.392-.088.685-.088 16.081 0 16.767.227 1.752.912 3.145 2.16 4.392 1.247 1.248 2.64 1.933 4.391 2.16.686.088 16.08.088 16.766 0 1.751-.227 3.144-.912 4.392-2.16 1.247-1.248 1.932-2.64 2.159-4.392.088-.686.088-16.082 0-16.767-.227-1.753-.916-3.155-2.158-4.392-1.255-1.251-2.644-1.934-4.393-2.16-.75-.097-16.272-.076-16.936.023zm17.497 5.134c1.267.603 1.401 2.393.237 3.175-.418.282-.682.354-1.178.321-.679-.044-1.225-.401-1.548-1.012-.134-.254-.155-.365-.156-.82-.002-.62.117-.925.511-1.32.299-.298.508-.412.923-.502.432-.094.777-.049 1.21.158zM31.2 23.884a6.188 6.188 0 014.378 3.331c.451.906.641 1.732.641 2.783 0 1.653-.568 3.097-1.68 4.27-1.222 1.29-2.762 1.951-4.54 1.951-3.015 0-5.494-2.033-6.122-5.02-.13-.623-.13-1.779 0-2.402.256-1.217.767-2.21 1.582-3.069.518-.546.955-.883 1.567-1.208 1.348-.715 2.686-.919 4.174-.636z" fill="#fff"/><defs><linearGradient id="paint0_linear_141_100" x1="50.625" y1="6.563" x2="8.438" y2="53.906" gradientUnits="userSpaceOnUse"><stop stop-color="#B658FF"/><stop offset=".479" stop-color="#FF8787"/><stop offset=".978" stop-color="#FFCF87"/></linearGradient></defs></svg>
